polaris-icons/icons/new-icons/DeleteMajor.svg

<svg width="20" height="20" viewBox="0 0 20 20" fill="none" xmlns="http://www.w3.org/2000/svg">
<path d="M11.5001 8.25C11.9143 8.25 12.2501 8.58579 12.2501 9V13.25C12.2501 13.6642 11.9143 14 11.5001 14C11.0858 14 10.7501 13.6642 10.7501 13.25V9C10.7501 8.58579 11.0858 8.25 11.5001 8.25Z" fill="#4A4A4A"/>
<path d="M9.25006 9C9.25006 8.58579 8.91427 8.25 8.50006 8.25C8.08585 8.25 7.75006 8.58579 7.75006 9V13.25C7.75006 13.6642 8.08585 14 8.50006 14C8.91427 14 9.25006 13.6642 9.25006 13.25V9Z" fill="#4A4A4A"/>
<path fill-rule="evenodd" clip-rule="evenodd" d="M7.25 5.25C7.25 3.73122 8.48122 2.5 10 2.5C11.5188 2.5 12.75 3.73122 12.75 5.25H15.7501C16.1643 5.25 16.5001 5.58579 16.5001 6C16.5001 6.41421 16.1643 6.75 15.7501 6.75H15L14.9999 12.2001C14.9998 13.8802 14.9998 14.7203 14.6728 15.362C14.3852 15.9265 13.9262 16.3854 13.3618 16.673C12.72 17 11.88 17 10.1998 17H9.80005C8.11984 17 7.27974 17 6.63799 16.673C6.07349 16.3854 5.61455 15.9264 5.32693 15.3619C4.99995 14.7202 4.99997 13.8801 5 12.1999L5.00011 6.75H4.25006C3.83585 6.75 3.50006 6.41421 3.50006 6C3.50006 5.58579 3.83585 5.25 4.25006 5.25H7.25ZM8.75 5.25C8.75 4.55964 9.30964 4 10 4C10.6904 4 11.25 4.55964 11.25 5.25H8.75ZM6.50013 6.75H13.5L13.4998 12.2001C13.4998 13.0649 13.4986 13.6233 13.4639 14.0483C13.4306 14.4558 13.3741 14.6068 13.3363 14.681C13.1925 14.9632 12.963 15.1927 12.6808 15.3365C12.6066 15.3743 12.4555 15.4308 12.048 15.4641C11.623 15.4988 11.0646 15.5 10.1998 15.5H9.80005C8.93519 15.5 8.37677 15.4988 7.95175 15.4641C7.54424 15.4308 7.39316 15.3743 7.31899 15.3365C7.03674 15.1927 6.80727 14.9632 6.66346 14.681C6.62567 14.6068 6.56916 14.4557 6.53587 14.0482C6.50115 13.6232 6.5 13.0648 6.50002 12.1999L6.50013 6.75Z" fill="#4A4A4A"/>
</svg>

<svg viewBox="0 0 20 20" xmlns="http://www.w3.org/2000/svg"><path d="M11.5 8.25a.75.75 0 0 1 .75.75v4.25a.75.75 0 0 1-1.5 0v-4.25a.75.75 0 0 1 .75-.75Z" fill="#5C5F62"/><path d="M9.25 9a.75.75 0 0 0-1.5 0v4.25a.75.75 0 0 0 1.5 0v-4.25Z" fill="#5C5F62"/><path fill-rule="evenodd" d="M7.25 5.25a2.75 2.75 0 0 1 5.5 0h3a.75.75 0 0 1 0 1.5h-.75v5.45c0 1.68 0 2.52-.327 3.162a3 3 0 0 1-1.311 1.311c-.642.327-1.482.327-3.162.327h-.4c-1.68 0-2.52 0-3.162-.327a3 3 0 0 1-1.311-1.311c-.327-.642-.327-1.482-.327-3.162v-5.45h-.75a.75.75 0 0 1 0-1.5h3Zm1.5 0a1.25 1.25 0 1 1 2.5 0h-2.5Zm-2.25 1.5h7v5.45c0 .865-.001 1.423-.036 1.848-.033.408-.09.559-.128.633a1.5 1.5 0 0 1-.655.655c-.074.038-.225.095-.633.128-.425.035-.983.036-1.848.036h-.4c-.865 0-1.423-.001-1.848-.036-.408-.033-.559-.09-.633-.128a1.5 1.5 0 0 1-.656-.655c-.037-.074-.094-.225-.127-.633-.035-.425-.036-.983-.036-1.848v-5.45Z" fill="#5C5F62"/></svg>
